images/Teleo-logo.svg

<?xml version="1.0" encoding="UTF-8"?>
<svg xmlns="http://www.w3.org/2000/svg" xmlns:xlink="http://www.w3.org/1999/xlink" width="180px" height="60px" viewBox="0 0 145 60" version="1.1">
<g id="surface1">
<path style=" stroke:none;fill-rule:nonzero;fill:rgb(0%,0%,0%);fill-opacity:1;" d="M 28.984375 47.125 L 23.710938 47.125 L 23.710938 17.773438 L 17.109375 17.773438 L 17.109375 12.898438 L 35.636719 12.898438 L 35.636719 17.773438 L 28.984375 17.773438 L 28.984375 47.125 M 57.949219 17.773438 L 47.765625 17.773438 L 47.765625 26.804688 L 55.289062 26.804688 L 55.289062 31.679688 L 47.765625 31.679688 L 47.765625 42.25 L 57.949219 42.25 L 57.949219 47.125 L 42.496094 47.125 L 42.496094 12.898438 L 57.949219 12.898438 L 57.949219 17.773438 M 70.027344 42.25 L 80.519531 42.25 L 80.519531 47.125 L 64.753906 47.125 L 64.753906 12.898438 L 70.027344 12.898438 L 70.027344 42.25 M 102.421875 17.773438 L 92.238281 17.773438 L 92.238281 26.804688 L 99.761719 26.804688 L 99.761719 31.679688 L 92.238281 31.679688 L 92.238281 42.25 L 102.421875 42.25 L 102.421875 47.125 L 86.964844 47.125 L 86.964844 12.898438 L 102.421875 12.898438 L 102.421875 17.773438 M 114.34375 36.144531 C 114.34375 38.863281 114.5 39.789062 115.011719 40.8125 C 115.625 41.945312 116.902344 42.660156 118.386719 42.660156 C 119.871094 42.660156 121.152344 41.945312 121.765625 40.8125 C 122.328125 39.738281 122.429688 38.914062 122.429688 36.144531 L 122.429688 23.878906 C 122.429688 21.109375 122.328125 20.285156 121.765625 19.210938 C 121.152344 18.082031 119.871094 17.363281 118.386719 17.363281 C 116.902344 17.363281 115.625 18.082031 115.011719 19.210938 C 114.5 20.234375 114.34375 21.160156 114.34375 23.878906 Z M 127.703125 36.246094 C 127.703125 40.097656 127.136719 42.40625 125.757812 44.355469 C 124.222656 46.511719 121.664062 47.640625 118.386719 47.640625 C 115.113281 47.640625 112.554688 46.511719 111.019531 44.355469 C 109.636719 42.40625 109.074219 40.097656 109.074219 36.246094 L 109.074219 23.777344 C 109.074219 19.929688 109.636719 17.617188 111.019531 15.667969 C 112.554688 13.511719 115.113281 12.382812 118.386719 12.382812 C 121.664062 12.382812 124.222656 13.511719 125.757812 15.667969 C 127.136719 17.617188 127.703125 19.929688 127.703125 23.777344 L 127.703125 36.246094 "/>
<path style=" stroke:none;fill-rule:nonzero;fill:rgb(0%,0%,0%);fill-opacity:1;" d="M 3.53125 56.480469 L 141.28125 56.480469 L 141.28125 3.542969 L 3.53125 3.542969 Z M 144.8125 60.023438 L 0 60.023438 L 0 0 L 144.8125 0 L 144.8125 60.023438 "/>
</g>
</svg>

<svg xmlns="http://www.w3.org/2000/svg" width="180" height="60" viewBox="0 0 145 60"><path d="M28.984 47.125h-5.273V17.773h-6.602v-4.875h18.528v4.875h-6.653v29.352M57.95 17.773H47.766v9.032h7.523v4.875h-7.523v10.57h10.183v4.875H42.496V12.898H57.95v4.875M70.027 42.25H80.52v4.875H64.754V12.898h5.273V42.25m32.395-24.477H92.238v9.032h7.524v4.875h-7.524v10.57h10.184v4.875H86.965V12.898h15.457v4.875m11.922 18.372c0 2.718.156 3.644.668 4.667.613 1.133 1.89 1.848 3.375 1.848 1.484 0 2.765-.715 3.379-1.847.562-1.075.664-1.899.664-4.668V23.879c0-2.77-.102-3.594-.664-4.668-.614-1.129-1.895-1.848-3.38-1.848-1.484 0-2.761.719-3.374 1.848-.512 1.023-.668 1.95-.668 4.668Zm13.36.101c0 3.852-.567 6.16-1.946 8.11-1.535 2.156-4.094 3.285-7.371 3.285-3.274 0-5.832-1.13-7.367-3.286-1.383-1.949-1.946-4.257-1.946-8.109V23.777c0-3.847.563-6.16 1.946-8.109 1.535-2.156 4.093-3.285 7.367-3.285 3.277 0 5.836 1.129 7.37 3.285 1.38 1.95 1.946 4.262 1.946 8.11v12.468" style="stroke:none;fill-rule:nonzero;fill:#000;fill-opacity:1"/><path d="M3.531 56.48h137.75V3.543H3.531Zm141.281 3.543H0V0h144.813v60.023" style="stroke:none;fill-rule:nonzero;fill:#000;fill-opacity:1"/></svg>
